X:283
T:
R:polska
S:Ur von Baumgartens samling i Visby.
O:Gotland, Visby
M:3/4
L:1/16
K:D
D2FA d2e2 f2g2|abga f2d2 f2a2|agfg e2c2 e2g2|fdfa agfg efde|cdBc ABGA FGEF|
D2FA d2e2 f2g2|abga f2df f2a2|agfg e2ce e2g2|fdfa g2f2 efga|bgec d4 D4:: % rÃ¤ttelse i originalet
A3^G A2B2 c2d2|Acec Acec Adfd|Acec Acec Adfd|ea^ga edcB A4|d3c d2e2 f2g2|
abga f2d2 f2a2|agfg e2c2 e2g2|fdfa agfg efga|bgec d4 D4:|

